webapp/src/assets/icons/cloudproviders/aws/compute/lambda_function.svg

<svg width="48" height="48" xmlns="http://www.w3.org/2000/svg"><path d="M24 44C12.972 44 4 35.028 4 24S12.972 4 24 4s20 8.972 20 20-8.972 20-20 20Zm0-42C11.869 2 2 11.869 2 24s9.869 22 22 22 22-9.869 22-22S36.131 2 24 2Zm-6.769 33.25h-5.355l6.345-13.291 2.681 5.533-3.671 7.758Zm1.883-16.035a1.001 1.001 0 0 0-.9-.564h-.003a.998.998 0 0 0-.899.57L9.389 35.819a.998.998 0 0 0 .902 1.431h7.573c.387 0 .739-.223.905-.572l4.146-8.763a1.002 1.002 0 0 0-.004-.864l-3.797-7.836ZM36.125 35.25h-5.452l-9.912-21.297a1.001 1.001 0 0 0-.907-.578h-3.603l.004-4.125h7.22l9.864 21.295a1 1 0 0 0 .907.58h1.879v4.125Zm1-6.125h-2.24L25.021 7.83a1.003 1.003 0 0 0-.908-.58h-8.857a1 1 0 0 0-1 .999l-.006 6.125a1 1 0 0 0 1 1.001h3.967l9.912 21.297a1 1 0 0 0 .906.578h7.09a1 1 0 0 0 1-1v-6.125a1 1 0 0 0-1-1Z" fill="#ED7100" fill-rule="evenodd"/></svg>

<?xml version="1.0" encoding="UTF-8"?>
<svg width="48px" height="48px" viewBox="0 0 48 48" version="1.1" xmlns="http://www.w3.org/2000/svg" xmlns:xlink="http://www.w3.org/1999/xlink">
    <title>Icon-Resource/Compute/Res_AWS-Lambda_Lambda-Function_48</title>
    <g id="Icon-Resource/Compute/Res_AWS-Lambda_Lambda-Function_48" stroke="none" stroke-width="1" fill="none" fill-rule="evenodd">
        <path d="M24,44 C12.972,44 4,35.028 4,24 C4,12.972 12.972,4 24,4 C35.028,4 44,12.972 44,24 C44,35.028 35.028,44 24,44 L24,44 Z M24,2 C11.869,2 2,11.869 2,24 C2,36.131 11.869,46 24,46 C36.131,46 46,36.131 46,24 C46,11.869 36.131,2 24,2 L24,2 Z M17.231,35.25 L11.876,35.25 L18.221,21.959 L20.902,27.492 L17.231,35.25 Z M19.114,19.215 C18.946,18.87 18.597,18.651 18.214,18.651 L18.211,18.651 C17.826,18.652 17.477,18.874 17.312,19.221 L9.389,35.819 C9.24,36.129 9.262,36.493 9.445,36.783 C9.628,37.074 9.947,37.25 10.291,37.25 L17.864,37.25 C18.251,37.25 18.603,37.027 18.769,36.678 L22.915,27.915 C23.044,27.642 23.043,27.323 22.911,27.051 L19.114,19.215 Z M36.125,35.25 L30.673,35.25 L20.761,13.953 C20.597,13.601 20.243,13.375 19.854,13.375 L16.251,13.375 L16.255,9.25 L23.475,9.25 L33.339,30.545 C33.503,30.898 33.856,31.125 34.246,31.125 L36.125,31.125 L36.125,35.25 Z M37.125,29.125 L34.885,29.125 L25.021,7.83 C24.856,7.477 24.503,7.25 24.113,7.25 L15.256,7.25 C14.704,7.25 14.257,7.697 14.256,8.249 L14.25,14.374 C14.25,14.64 14.355,14.894 14.543,15.082 C14.73,15.27 14.984,15.375 15.25,15.375 L19.217,15.375 L29.129,36.672 C29.293,37.024 29.646,37.25 30.035,37.25 L37.125,37.25 C37.678,37.25 38.125,36.803 38.125,36.25 L38.125,30.125 C38.125,29.572 37.678,29.125 37.125,29.125 L37.125,29.125 Z" id="Amazon-Lambda-Lambda-Function_Resource-Icon_light-bg" fill="#ED7100"></path>
    </g>
</svg>
